X:1
T:Etude op. 21 no 6
T:Etude op. 21 no 6
T:Joachim Andersen
C:Joachim Andersen
%%score ( 1 2 )
L:1/8
Q:3/8=72
M:3/8
K:D
V:1 treble nm="Flûte" snm="Fl."
V:2 treble 
V:1
"^Andantino"!p! !>!.f2 !>!.^e | !>!.f!<(!!>!.d'!>!.c' | !>!.b!>!.a!<)!!>!.g | %3
!>(! !>!.^e!>!.f!>!.f!>)! |!p!!<(! !>!.f!>!.g!>!.^d!<)! |!>(! !>!.f!>!.e!>!.=d!>)! | %6
!p! !>!.c!>!.=c!>!.B |!pp! !>!.^A!<(!!>!.g!>!.f!<)! |!p! !>!.f2 !>!.^e |!<(! !>!.f!>!.d'!>!.c' | %10
 !>!.b!>!.a!<)!!>!.g |"_cresc." !>!.f!>!.g!>!.a | !>!.b2!>(! !>!.d | !>!.c2!>)! !>!.g | %14
"_dim." !>!.f!>!.e!>!.f |!p! !>!.d2 z |!mf! !>!.a2 !>!.^g | !>!.a!>!.=c'!>!.b | %18
!>(! !>!.g!>!.f!>!.^d!>)! | !>!.e z z |!p! !>!.g2 !>!.f |!<(! !>!.g!>!.b!>!.^a!<)! | %22
 !>!.=a!>!.b!>!.c' | !>!.d' z z |!f! z !>!.d'!>!.c' | !>!.b z z | z !>!.d'!>!.c' | %27
!>(! !>!.b z z!>)! |!mf! z !>!.c/>!>!.b/!>!.^a/>!>!.b/ | %29
 z!<(! !>!.^e/>!>!.c'/!<)!!>(!!>!.^b/>!>!.c'/!>)! |!mf! z !>!.=g!>(!!>!.f | !>!.^e!>!.f!>)! z | %32
!p! !>!.f2 !>!.^e |!<(! !>!.f!>!.d'!>!.c'!<)! | !>!.b!>!.a!>!.g |!>(! !>!.^e!>!.f!>!.f!>)! | %36
!p!!<(! !>!.f!>!.g!>!.^d!<)! |!>(! !>!.f!>!.e!>!.=d!>)! |!p! !>!.c!>!.=c"_dim."!>!.B | %39
!pp!!<(! !>!.^A!>!.g!>!.f!<)! |!p! !>!.f2 !>!.^e |!<(! !>!.f!>!.d'!>!.c' | !>!.b!<)!!>!.a!>!.g | %43
"_cresc.\n" !>!.f!>!.g!>!.a |!>(! !>!.b2 !>!.d!>)! | !>!.c2"_dim." !>!.g | !>!.^f!>!.d!>!.c | %47
 !>!.=c!>!.B!>!.^c |!<(! !>!.=d!>!.=e!>!.f!<)! | !>!.c!>!.d!>!.e | !>!.B!>!.F!<(!!>!.^A | %51
 !>!.B2!<)! !>!.c |"_cresc." !>!.d!>!.c!>!.B |!>(! !>!.^A!>!.d!>!.c!>)! |!p! !>!.B2 !>!.c | %55
 !>!.B!>!.F!>!.E |!<(! !>!.F2 z!<)! |!>(! !>!.^A2 z!>)! |!pp! !>!.B!>!.^F!>!.^A | %59
 !>!.B!>!.F!>!.^A | !>!.B!>!.d!>!.f |!<(! b2!>(! z!<)!!>)! |] %62
V:2
 f/4(d/4"_molto espressivo"c/4B/4 F/4)(d/4c/4B/4) ^e/4(d/4c/4B/4) | %1
 f/4(d/4c/4B/4) d'/4(d/4c/4B/4) c'/4(d/4c/4B/4) | b/4(d/4c/4B/4) a/4(d/4c/4B/4) g/4(d/4c/4B/4) | %3
 ^e/4(c/4B/4^A/4) f/4(c/4B/4A/4) f/4(c/4B/4A/4) | f/4(=c/4B/4=A/4) g/4(c/4B/4A/4) ^d/4(c/4B/4A/4) | %5
 f/4(B/4A/4G/4) e/4(B/4A/4G/4) d/4(B/4G/4F/4) | %6
 c/4(G/4F/4E/4) =c/4"_dim."(G/4F/4E/4) B/4(G/4F/4E/4) | %7
 ^A/4(F/4G/4F/4) g/4(F/4G/4F/4) f/4(F/4G/4F/4) | f/4(d/4c/4B/4 F/4)(d/4c/4B/4) ^e/4(d/4c/4B/4) | %9
 f/4(d/4c/4B/4) d'/4(d/4c/4B/4) c'/4(d/4c/4B/4) | b/4(c/4B/4A/4) a/4(c/4B/4A/4) g/4(c/4B/4A/4) | %11
 f/4(d/4e/4f/4) g/4(e/4f/4g/4) a/4(f/4g/4a/4) | b/4(d/4c/4B/4 G/4)(B/4^B/4c/4) d/4(=B/4A/4G/4) | %13
 c/4(G/4F/4=F/4 E/4)(G/4A/4B/4) g/4(B/4A/4G/4) | f/4(B/4A/4^G/4) e/4(B/4A/4=G/4) f/4(A/4B/4c/4) | %15
 d/4(A/4G/4F/4!<(! ^E/4F/4A/4d/4 f/4)(c/4d/4f/4)!<)! | %16
 a/4(f/4e/4d/4!<(! A/4)(d/4e/4f/4) ^g/4(=f/4e/4d/4) | %17
 a/4(^f/4e/4d/4)!<)! =c'/4(e/4d/4=c/4) b/4(^d/4^c/4B/4) | %18
 g/4(B/4A/4G/4) f/4(=c/4B/4A/4) ^d/4(B/4^c/4d/4) | e/4(=c/4B/4^A/4 B/4G/4F/4^D/4 E/4)(G/4B/4e/4) | %20
 g/4(e/4=d/4=c/4 G/4)(c/4d/4e/4) f/4(d/4c/4A/4) | g/4(d/4=c/4B/4) b/4(e/4d/4^c/4) ^a/4(g/4f/4e/4) | %22
 a/4"_cresc."(f/4e/4d/4) b/4(c/4B/4A/4) c'/4(^A/4B/4c/4) | %23
 d'/4(C/4D/4F/4 A/4F/4A/4d/4 f/4d/4A/4G/4 | F/4)(^A/4e/4f/4) d'/4(g/4f/4e/4) c'/4(g/4f/4e/4) | %25
 b/4(g/4f/4d/4 B/4d/4B/4G/4 F/4)(D/4E/4^E/4 | F/4)(^A/4=e/4f/4) d'/4(g/4f/4e/4) c'/4(g/4f/4e/4) | %27
 b/4(g/4d/4B/4 G/4B/4G/4F/4 E/4G/4E/4D/4 | %28
 C/4)(E/4!<(!G/4B/4)x/4(e/4g/4)b/4x/4!<)!!>(!(b/4c'/4)b/4!>)! | %29
 .^E/4(^G/4B/4c/4)x/4(^g/4b/4)c'/4x/4(c'/4d'/4)c'/4 | %30
 F/4(^A/4c/4=e/4) g/4(e/4d/4c/4) f/4(e/4d/4c/4) | ^e/4(d/4c/4B/4) f/4(c/4B/4^A/4 =G/4F/4^E/4F/4) | %32
 f/4(d/4c/4B/4 F/4)(d/4c/4B/4) ^e/4(d/4c/4B/4) | f/4(d/4c/4B/4) d'/4(d/4c/4B/4) c'/4(d/4c/4B/4) | %34
 b/4(d/4c/4B/4) a/4(d/4c/4B/4) g/4(d/4c/4B/4) | ^e/4(c/4B/4^A/4) f/4(c/4B/4A/4) f/4(c/4B/4A/4) | %36
 f/4(=c/4B/4=A/4) g/4(c/4B/4A/4) ^d/4(c/4B/4A/4) | f/4(B/4A/4G/4) e/4(B/4A/4G/4) d/4(B/4G/4F/4) | %38
 c/4(G/4F/4E/4) =c/4(G/4F/4E/4) B/4(G/4F/4E/4) | ^A/4(F/4G/4F/4) g/4(F/4G/4F/4) f/4(F/4G/4F/4) | %40
 f/4(d/4c/4B/4 F/4)(d/4c/4B/4) ^e/4(d/4c/4B/4) | f/4(d/4c/4B/4) d'/4(d/4c/4B/4) c'/4(d/4c/4B/4) | %42
 b/4(c/4B/4A/4) a/4(c/4B/4A/4) g/4(c/4B/4A/4) | f/4(d/4e/4f/4) g/4(e/4f/4g/4) a/4(f/4g/4a/4) | %44
 b/4(d/4c/4B/4 G/4B/4^B/4c/4) d/4(=B/4A/4G/4) | c/4(G/4F/4=F/4 E/4G/4A/4B/4) g/4(B/4A/4G/4) | %46
 f/4(G/4^E/4F/4) d/4(G/4E/4F/4) c/4(F/4^D/4=E/4) | %47
 =c/4(^^C/4^D/4F/4) B/4(D/4E/4G/4) ^c/4(^^D/4^E/4^G/4) | %48
 d/4(^E/4F/4B/4) e/4(^A/4B/4d/4) f/4(c/4e/4d/4) | %49
 c/4(^E/4F/4^A/4) d/4(^^G/4A/4c/4) e/4!pp!(=g/4^e/4f/4) | %50
 B/4(d/4c/4B/4) F/4(d/4c/4B/4) ^A/4(c/4B/4A/4) | B/4(f/4e/4d/4 F/4)(f/4e/4d/4) c/4(e/4d/4c/4) | %52
 d/4(b/4^a/4b/4) c/4(=a/4^g/4a/4) B/4(=g/4f/4g/4) | %53
 ^A/4(f/4^e/4f/4) d/4(f/4e/4f/4) c/4(=e/4^d/4e/4) | B/4(=d/4c/4B/4 F/4)(f/4e/4d/4) c/4(e/4d/4c/4) | %55
 B/4(d/4c/4B/4) F/4(d/4c/4B/4) E/4(G/4F/4^E/4) | F/4(G/4^E/4F/4 B/4d/4e/4^e/4 g/4f/4d/4B/4) | %57
 ^A/4(c/4=e/4g/4 f/4e/4c/4F/4) (^^F/4^G/4=A/4^A/4) | %58
 B/4(d/4c/4B/4) F/4(D/4E/4F/4) ^A/4(=G/4F/4E/4) | B/4(d/4c/4B/4) F/4(D/4E/4F/4) ^A/4(G/4F/4E/4) | %60
 B/4(F/4E/4D/4) d/4(B/4G/4F/4) f/4(d/4c/4!pp!B/4) | x3 |] %62

